icons/svg/speaker-muted_14.svg

<?xml version="1.0" encoding="UTF-8"?>
<svg width="14px" height="14px" viewBox="0 0 14 14" version="1.1" xmlns="http://www.w3.org/2000/svg" xmlns:xlink="http://www.w3.org/1999/xlink">
    <!-- Generator: Sketch 63.1 (92452) - https://sketch.com -->
    <title>speaker-muted_14</title>
    <desc>Created with Sketch.</desc>
    <g id="Icons-Webex" stroke="none" stroke-width="1" fill="none" fill-rule="evenodd">
        <g id="speaker-muted_14" fill="#171B1F" fill-rule="nonzero">
            <g id="Combined-Shape">
                <path d="M6.814,0.2054 C7.013,0.0054 7.31,-0.0556 7.571,0.0534 C7.832,0.1624 8,0.4144 8,0.6954 L8,0.6954 L8,5.29191481 L12.1464,1.14645 C12.3417,0.951184 12.6583,0.951184 12.8536,1.14645 C13.0488,1.34171 13.0488,1.65829 12.8536,1.85355 L12.4465,2.26063 C14.7492,5.38901 14.4861,9.82787 11.6572,12.6568 C11.5592,12.7548 11.4312,12.8038 11.3032,12.8038 C11.1762,12.8038 11.0482,12.7548 10.9502,12.6568 C10.7552,12.4618 10.7552,12.1458 10.9502,11.9498 C13.3883,9.51174 13.6482,5.70726 11.73,2.97714 L11.0109,3.69617 C11.6546,4.66811 12.0002,5.80764 12.0002,6.99978 C12.0002,8.60278 11.3762,10.1098 10.2432,11.2418 C10.1452,11.3398 10.0172,11.3888 9.8892,11.3888 C9.7622,11.3888 9.6342,11.3398 9.5362,11.2418 C9.3412,11.0468 9.3412,10.7308 9.5362,10.5348 C10.4802,9.59078 11.0002,8.33578 11.0002,6.99978 C11.0002,6.07609 10.7516,5.19112 10.2862,4.42088 L8,6.70591481 L8,13.3044 C8,13.552025 7.871375,13.7759156 7.66436914,13.9003707 L7.571,13.9474 C7.485,13.9834 7.395,14.0004 7.305,14.0004 C7.125,14.0004 6.948,13.9294 6.814,13.7974 L6.814,13.7974 L3.862,10.8439148 L1.85355,12.8536 C1.65829,13.0488 1.34171,13.0488 1.14645,12.8536 C0.951184,12.6583 0.951184,12.3417 1.14645,12.1464 L3.155,10.1369148 L3.018,10.0004 L1.667,10.0004 C0.748,10.0004 0,9.2534 0,8.3344 L0,8.3344 L0,5.6664 C0,4.7474 0.748,3.9994 1.667,3.9994 L1.667,3.9994 L3.019,3.9994 L6.814,0.2054 Z M7,7.70591481 L4.569,10.1369148 L7,12.5684 L7,7.70591481 Z M7,1.4324 L3.58,4.8534 C3.486,4.9464 3.359,4.9994 3.226,4.9994 L3.226,4.9994 L1.667,4.9994 C1.299,4.9994 1,5.2974 1,5.6664 L1,5.6664 L1,8.3344 C1,8.7014 1.299,9.0014 1.667,9.0014 L1.667,9.0014 L3.225,9.0014 C3.357,9.0014 3.484,9.0524 3.578,9.1464 L3.578,9.1464 L3.862,9.42991481 L7,6.29191481 L7,1.4324 Z"></path>
            </g>
        </g>
    </g>
</svg>

<svg width="14" height="14" xmlns="http://www.w3.org/2000/svg"><path d="M6.814.205A.694.694 0 018 .695v4.597l4.146-4.146a.5.5 0 01.708.708l-.407.407c2.302 3.128 2.04 7.567-.79 10.396a.5.5 0 11-.707-.707c2.438-2.438 2.698-6.243.78-8.973l-.72.72c.645.971.99 2.11.99 3.303 0 1.603-.624 3.11-1.757 4.242a.5.5 0 11-.707-.707A4.966 4.966 0 0011 7c0-.924-.248-1.809-.714-2.58L8 6.707v6.598a.693.693 0 01-.336.596l-.093.047a.7.7 0 01-.757-.15l-2.952-2.953-2.008 2.01a.5.5 0 01-.708-.708l2.009-2.01L3.018 10H1.667A1.668 1.668 0 010 8.334V5.666A1.67 1.67 0 011.667 4h1.352L6.814.205zM7 7.705l-2.431 2.432L7 12.568V7.706zm0-6.273L3.58 4.853A.504.504 0 013.226 5H1.667A.667.667 0 001 5.666v2.668c0 .367.299.667.667.667h1.558c.132 0 .259.051.353.145l.284.284L7 6.292v-4.86z" fill="#171B1F" fill-rule="nonzero"/></svg>
